X:134
T:Rassa, tan creis
C:Bertrand de Born
L:1/4
K:C
c3 | c2c | c2c | B2A | B3 | A2z | A3 | B2B |
d2c | B2A | B3 | A2z | G3 | F2G | A2A | A2A |
A3 | A2z | A3 | G2A | B2c | (BA)G/F/ | G3 | G2z |
F3 | G2A | A2A | A2A | A3 | A2z | A3 | G2A |
B2c | (BA)G | A3 | A2z | (c2B) | A2B | c2d |
c2B | A2z | G3 | F2G | A2A | A2A | E2z | E3 |
F2G | A2A | A>(BA) | (AG)z | F3 | G2A | A2A |
A2A | A3 | D2z | D3 | E2F | G2A | B>(BA) | G2z |]






